;; This file was taken from the FMS Logo examples
;; Ref: http://fmslogo.sourceforge.net/workshop/
TO STAR
  REPEAT 5 [ FORWARD 200 RIGHT 144 ]
END
  
STAR
TO TRIANGLE
  REPEAT 3 [ FORWARD 100 LEFT 120 ]
END

TO SQUARE
  REPEAT 4 [ FORWARD 100 RIGHT 90 ]
END

TO DOOR
  RIGHT   90 ; move into position
  FORWARD 60
  LEFT    90 ; draw the rectangle
  FORWARD 50
  LEFT    90
  FORWARD 20
  LEFT    90
  FORWARD 50
  RIGHT   90 ; return to where we started
  FORWARD 40
  RIGHT   90
END

TO ROOF
  FORWARD 100 ; move into position
  RIGHT   90
  TRIANGLE    ; draw the triangle roof
  LEFT 90     ; return to where we started
  BACK 100
END

TO HOUSE
  SQUARE
  DOOR
  ROOF
END

HOUSE

TO SAWTOOTH
  RIGHT   45
  FORWARD 56.56
  LEFT    135
  FORWARD 40
  RIGHT   90
END

TO SAWBLADE
  REPEAT 12 [ SAWTOOTH RIGHT 30 ]
END

SAWBLADE

TO FANBLADE
  REPEAT 2 [
    FORWARD 100
    RIGHT   135
    FORWARD 20
    RIGHT   45
  ]
END

TO FAN
  REPEAT 8 [
    FANBLADE
    LEFT    135
    FORWARD 20
  ]
END

FAN

TO SEGMENT
  FORWARD 20
  LEFT    90
  FORWARD 50
  LEFT    90
  FORWARD 10
  LEFT    90
  FORWARD 55

  FORWARD 55
  RIGHT   90
  FORWARD 10
  RIGHT   90
  FORWARD 50
  RIGHT   90
  FORWARD 20
END

TO PATTERN
  RIGHT 62
  REPEAT 10 [ SEGMENT ]
END

PATTERN

TO SQUARE
  REPEAT 4 [ FORWARD 100 RIGHT 90 ]
END

TO SQUAREFLOWER
  REPEAT 18 [ SQUARE RIGHT 20 ]
END

SQUAREFLOWER

;; warn about overwriting square definition
TO SQUARE
  REPEAT 4 [ FORWARD 100 RIGHT 90 ]
END

REPEAT 4 [ FORWARD 100 RIGHT 90 ]

FORWARD 100
RIGHT   90
FORWARD 100
RIGHT   90
FORWARD 100
RIGHT   90
FORWARD 100
RIGHT   90

REPEAT 14 [ FORWARD 30 RIGHT 360/14 ]
;; comment
