;; This file was taken from the FMS Logo examples
;; Ref: http://fmslogo.sourceforge.net/workshop/
to program :step
cs
repeat 4 [
 make "degree 0
 repeat 100 [
  forward 15
  left :degree
  make "degree (:degree + :step)
  ]
]
end

reset 
program 2.5
program 5.2
